svg/l/AD.svg

<svg width="32" height="24" viewBox="0 0 32 24" fill="none" xmlns="http://www.w3.org/2000/svg">
<g clip-path="url(#clip0_270_67315)">
<rect width="32" height="24" fill="white"/>
<path fill-rule="evenodd" clip-rule="evenodd" d="M8 0H24V24H8V0Z" fill="#FFD018"/>
<path fill-rule="evenodd" clip-rule="evenodd" d="M0 0H8V24H0V0Z" fill="#2E42A5"/>
<path fill-rule="evenodd" clip-rule="evenodd" d="M24 0H32V24H24V0Z" fill="#E31D1C"/>
<path fill-rule="evenodd" clip-rule="evenodd" d="M16.2991 19.4236C16.5201 19.3615 16.7102 18.9772 16.7102 18.9772C16.7102 18.9772 16.8545 19.09 17.0834 19.2048C17.3122 19.3195 17.5501 18.9772 17.5501 18.9772C17.5501 18.9772 17.8751 18.9772 18.0176 18.5937C18.1602 18.2103 17.7332 18.046 17.7332 18.046C17.7332 18.046 18.2323 17.5217 19.0749 17.5217C19.9176 17.5217 20.5734 17.5217 21.1232 17.2883C21.6731 17.0549 22.2073 16.6536 22.4072 15.8203C22.6071 14.9869 21.9744 14.4621 21.9744 14.4621C21.9744 14.4621 22.1145 14.5064 22.4072 14.267C22.6999 14.0276 22.2281 13.2572 21.9744 13.2572C21.7208 13.2572 21.6906 13.3998 21.6906 13.3998C21.6906 13.3998 21.5339 13.2638 21.3192 12.8014C21.1044 12.339 21.5339 11.933 21.5339 11.933C21.5339 11.933 21.7692 12.0679 21.9744 11.8454C22.1797 11.623 21.8678 11.2821 21.8678 11.2821C21.8678 11.2821 22.8559 10.9458 22.713 9.68177C22.5702 8.41774 21.2673 8.48963 21.2673 8.48963C21.2673 8.48963 21.3068 8.27946 21.1232 8.15968C20.9397 8.03991 20.8036 8.27946 20.8036 8.27946C20.6596 7.94606 21.082 7.48997 21.42 7.12497C21.5247 7.01186 21.6214 6.90751 21.6906 6.81826C21.983 6.44099 21.7994 5.9749 20.731 5.46617C19.6625 4.95744 19.0792 5.64116 18.9936 5.88344C18.908 6.12571 19.2395 6.27563 19.2395 6.27563C18.9691 6.51292 18.4461 6.60353 18.0897 6.43958C17.7332 6.27563 17.8912 5.77705 17.9649 5.64116C17.973 5.62629 17.9837 5.60827 17.9961 5.58746C18.0968 5.4181 18.3075 5.06401 18.0897 4.71967C17.8451 4.33302 17.4216 4.33302 17.0834 4.55258C16.7938 4.74051 16.3823 4.84015 16.2696 4.86497C16.157 4.84015 15.7455 4.74051 15.4559 4.55258C15.1177 4.33302 14.6942 4.33302 14.4496 4.71967C14.2318 5.06401 14.4424 5.4181 14.5432 5.58746C14.5556 5.60827 14.5663 5.62629 14.5744 5.64116C14.6481 5.77705 14.8061 6.27563 14.4496 6.43958C14.0931 6.60353 13.5702 6.51292 13.2998 6.27563C13.2998 6.27563 13.6313 6.12571 13.5457 5.88344C13.4601 5.64116 12.8768 4.95744 11.8083 5.46617C10.7399 5.9749 10.5563 6.44099 10.8487 6.81826C10.9179 6.90751 11.0145 7.01186 11.1193 7.12497C11.4573 7.48997 11.8797 7.94606 11.7356 8.27946C11.7356 8.27946 11.5996 8.03991 11.4161 8.15968C11.2325 8.27946 11.272 8.48963 11.272 8.48963C11.272 8.48963 9.9691 8.41774 9.82625 9.68177C9.68341 10.9458 10.6715 11.2821 10.6715 11.2821C10.6715 11.2821 10.3596 11.623 10.5648 11.8454C10.7701 12.0679 11.0054 11.933 11.0054 11.933C11.0054 11.933 11.4348 12.339 11.2201 12.8014C11.0054 13.2638 10.8487 13.3998 10.8487 13.3998C10.8487 13.3998 10.8185 13.2572 10.5648 13.2572C10.3112 13.2572 9.83938 14.0276 10.1321 14.267C10.4247 14.5064 10.5648 14.4621 10.5648 14.4621C10.5648 14.4621 9.93218 14.9869 10.1321 15.8203C10.332 16.6536 10.8662 17.0549 11.4161 17.2883C11.9659 17.5217 12.6217 17.5217 13.4644 17.5217C14.307 17.5217 14.8061 18.046 14.8061 18.046C14.8061 18.046 14.3791 18.2103 14.5217 18.5937C14.6642 18.9772 14.9891 18.9772 14.9891 18.9772C14.9891 18.9772 15.2271 19.3195 15.4559 19.2048C15.6847 19.09 15.8291 18.9772 15.8291 18.9772C15.8291 18.9772 16.0192 19.3615 16.2402 19.4236V19.4321C16.25 19.4321 16.2599 19.4313 16.2696 19.4299C16.2794 19.4313 16.2892 19.4321 16.2991 19.4321V19.4236Z" fill="#BF9937"/>
<path d="M12.1102 15.9978L12.2153 15.7437C13.423 16.2614 14.7973 16.5206 16.3392 16.5206C17.8802 16.5206 19.2176 16.2617 20.3521 15.7449L20.4627 15.9966C19.2913 16.5301 17.9165 16.7963 16.3392 16.7963C14.7626 16.7963 13.3526 16.5304 12.1102 15.9978Z" fill="#805440"/>
</g>
<defs>
<clipPath id="clip0_270_67315">
<rect width="32" height="24" fill="white"/>
</clipPath>
</defs>
</svg>

<svg width="32" height="24" fill="none" xmlns="http://www.w3.org/2000/svg">
  <mask id="a" maskUnits="userSpaceOnUse" x="0" y="0" width="32" height="24">
    <path fill="#fff" d="M0 0h32v24H0z"/>
  </mask>
  <g mask="url(#a)">
    <path fill-rule="evenodd" clip-rule="evenodd" d="M8 0h16v24H8V0z" fill="#FFD018"/>
    <path fill-rule="evenodd" clip-rule="evenodd" d="M0 0h8v24H0V0z" fill="#2E42A5"/>
    <path fill-rule="evenodd" clip-rule="evenodd" d="M24 0h8v24h-8V0z" fill="#E31D1C"/>
    <path fill-rule="evenodd" clip-rule="evenodd" d="M16.3 19.424c.22-.063.41-.447.41-.447s.145.113.373.228c.23.115.467-.228.467-.228s.325 0 .468-.383c.142-.384-.285-.548-.285-.548s.5-.524 1.342-.524c.843 0 1.498 0 2.048-.234.55-.233 1.084-.634 1.284-1.468.2-.833-.433-1.358-.433-1.358s.14.044.433-.195c.293-.24-.179-1.01-.433-1.01-.253 0-.283.143-.283.143s-.157-.136-.372-.599c-.215-.462.215-.868.215-.868s.235.135.44-.088c.206-.222-.106-.563-.106-.563s.988-.336.845-1.6c-.143-1.264-1.446-1.192-1.446-1.192s.04-.21-.144-.33c-.183-.12-.32.12-.32.12-.143-.334.279-.79.617-1.155a4.68 4.68 0 00.27-.307c.293-.377.11-.843-.959-1.352-1.069-.509-1.652.175-1.737.417-.086.243.245.393.245.393-.27.237-.793.328-1.15.164-.356-.164-.198-.663-.124-.799l.031-.054c.1-.169.312-.523.094-.867-.245-.387-.668-.387-1.007-.167-.29.188-.7.287-.813.312-.113-.025-.524-.124-.814-.312-.338-.22-.762-.22-1.006.167-.218.344-.008.698.093.867l.031.054c.074.136.232.635-.124.799-.357.164-.88.073-1.15-.164 0 0 .331-.15.246-.393-.086-.242-.67-.926-1.738-.417-1.068.509-1.252.975-.96 1.352.07.09.166.194.271.307.338.365.76.821.617 1.154 0 0-.136-.24-.32-.12s-.144.33-.144.33-1.303-.071-1.446 1.193c-.143 1.264.845 1.6.845 1.6s-.311.341-.106.563c.205.223.44.088.44.088s.43.406.215.868c-.215.463-.371.599-.371.599s-.03-.143-.284-.143-.726.77-.433 1.01.433.195.433.195-.633.525-.433 1.358c.2.834.734 1.235 1.284 1.468.55.234 1.206.234 2.048.234.843 0 1.342.524 1.342.524s-.427.164-.284.548c.142.383.467.383.467.383s.238.343.467.228c.229-.115.373-.228.373-.228s.19.384.411.447v.008c.01 0 .02 0 .03-.002l.03.002v-.008z" fill="#BF9937"/>
    <path d="M12.11 15.998l.105-.254c1.208.517 2.582.777 4.124.777 1.541 0 2.879-.26 4.013-.776l.11.252c-1.17.533-2.546.8-4.123.8-1.576 0-2.986-.267-4.229-.8z" fill="#805440"/>
    <path fill-rule="evenodd" clip-rule="evenodd" d="M12.478 7.233h7.541v7.03s-.002.62-.658.891c-.656.272-1.427.175-1.427.175s-.738-.16-1.128 0a3.42 3.42 0 01-.51.168v.018l-.047-.008a.81.81 0 01-.048.008v-.018a3.42 3.42 0 01-.51-.168c-.39-.16-1.128 0-1.128 0s-.771.097-1.427-.175a1.022 1.022 0 01-.658-.892v-7.03z" fill="#BF9937"/>
    <mask id="b" maskUnits="userSpaceOnUse" x="12" y="7" width="9" height="9">
      <path fill-rule="evenodd" clip-rule="evenodd" d="M12.478 7.233h7.541v7.03s-.002.62-.658.891c-.656.272-1.427.175-1.427.175s-.738-.16-1.128 0a3.42 3.42 0 01-.51.168v.018l-.047-.008a.81.81 0 01-.048.008v-.018a3.42 3.42 0 01-.51-.168c-.39-.16-1.128 0-1.128 0s-.771.097-1.427-.175a1.022 1.022 0 01-.658-.892v-7.03z" fill="#fff"/>
    </mask>
    <g mask="url(#b)">
      <path fill="#D00F3A" d="M12.373 7.144h3.656v3.9h-3.656z"/>
      <path fill-rule="evenodd" clip-rule="evenodd" d="M16.435 7.144h3.792v3.9h-3.792v-3.9zm0 4.334h3.657v4.044h-3.657v-4.044z" fill="#FEDF00"/>
      <path fill="#FEDF00" d="M12.373 11.478h3.656v4.044h-3.656z"/>
      <path fill-rule="evenodd" clip-rule="evenodd" d="M19.144 13.299s.17-.173.17-.58.143-.676-.17-.676h-1.038c-.3 0-.146.18-.447 0-.3-.181-.543-.123-.543 0s.304.069.304.32c0 .25.114.032.114.484 0 .452.064.376.095.376.03 0 .03-.082.03-.2 0-.12-.015-.598.069-.451.083.147.124.078.166.245.04.167.152.33.076.406-.076.075-.23.14-.115.14s.282-.192.198-.516c-.083-.324.104-.03.104-.03s.442.098.47-.037c.029-.134.07.13.19.13.119 0-.116.27-.215.313-.1.042 0 .075 0 .075s.092.076.153 0c.061-.075.28-.323.28-.451s.14-.051.14.062c0 .113-.13.52-.08.455l.049-.066zm0 1.588s.17-.172.17-.579.143-.676-.17-.676h-1.038c-.3 0-.146.18-.447 0-.3-.181-.543-.123-.543 0s.304.069.304.32c0 .25.114.032.114.484 0 .451.064.376.095.376.03 0 .03-.082.03-.2 0-.12-.015-.598.069-.451.083.147.124.078.166.245.04.167.152.33.076.406-.076.075-.23.14-.115.14s.282-.192.198-.516c-.083-.324.104-.03.104-.03s.442.098.47-.037c.029-.134.07.13.19.13.119 0-.116.27-.215.313-.1.042 0 .075 0 .075s.092.076.153 0c.061-.075.28-.323.28-.451s.14-.051.14.062c0 .113-.13.52-.08.455l.049-.066z" fill="#D00F3A"/>
      <path fill-rule="evenodd" clip-rule="evenodd" d="M14.21 10.298c0 .165-.084.29-.275.484l-.026.025-.05.052c-.029.028-.05.05-.069.071-.163.185-.449.026-.522-.153a4.658 4.658 0 00-.163-.294l-.005-.008-.055-.095-.05-.086a5.797 5.797 0 01-.065-.114c-.007-.013-.045.002-.111.086-.025.033.026.143.192.32l-.094.104c-.23-.224-.341-.37-.341-.47 0-.168.135-.258.387-.258.158 0 .242.111.37.392l.031.072c.063.138.103.214.152.275.057.073.092.07.152-.006.059-.074.113-.19.195-.397l.022-.056c.018-.044.026-.063.02-.067-.004-.004-.017.003-.041.017l-.03.016-.064.033-.574-1.379 1.086-1.319v2.747l-.07-.063a.805.805 0 00-.002.07zm.077-.004l-.005.005v-.01l.005.005zm.006-.004v.01l-.005-.006.005-.004zm0-2.747l1.086 1.319-.574 1.38-.063-.034c-.044-.023-.067-.038-.073-.033-.006.005.01.04.043.123.082.208.136.323.195.397.06.076.095.08.152.006.049-.061.09-.137.152-.276l.032-.071c.127-.28.211-.392.37-.392.25 0 .386.09.386.258 0 .1-.111.246-.341.47l-.094-.104c.165-.177.217-.287.192-.32-.066-.085-.104-.099-.11-.086l-.066.114-.05.086-.055.095-.005.008a5.045 5.045 0 00-.163.293c-.073.18-.359.339-.523.154a1.836 1.836 0 00-.118-.123l-.026-.025c-.191-.193-.275-.32-.275-.484a.805.805 0 00-.003-.071l-.07.063V7.543zm0 0l-.005-.006.005-.006v.012zm-.005-.006l-.006.006v-.012l.005.006zm-.068 2.647l.002-.004v.002l-.002.002z" fill="#fff"/>
      <path fill-rule="evenodd" clip-rule="evenodd" d="M14.278 10.05V7.823l.942 1.065-.484 1.162c-.178-.062-.24.07-.148.303.054.14.098.24.14.318-.16-.162-.227-.264-.227-.373a.419.419 0 00-.03-.19c-.01-.018-.095-.036-.149-.048l-.043-.01zm-.44 0l-.483-1.162.919-1.057v2.227l-.041.009c-.048.01-.119.023-.129.042-.021.04-.03.1-.03.189 0 .109-.066.21-.227.373.043-.078.086-.178.14-.318.092-.234.03-.365-.148-.303z" fill="#FEDF00"/>
      <path fill-rule="evenodd" clip-rule="evenodd" d="M13.185 11.478h-.406v4.044h.406v-4.044zm.813 0h-.406v4.044h.406v-4.044zm.406 0h.406v4.044h-.406v-4.044zm1.219 0h-.406v4.044h.406v-4.044zm1.76-4.334h-.406v4.045h.406V7.144zm.813 0h-.406v4.045h.406V7.144zm.406 0h.406v4.045h-.406V7.144zm1.219 0h-.406v4.045h.406V7.144z" fill="#D00F3A"/>
    </g>
  </g>
</svg>
